brandFactory_export/1.Light/Documento_Archivo Sketch_1Light.svg

<?xml version="1.0" encoding="UTF-8"?>
<svg width="24px" height="24px" viewBox="0 0 24 24" version="1.1" xmlns="http://www.w3.org/2000/svg" xmlns:xlink="http://www.w3.org/1999/xlink">
    <title>1.Light/Documento_Archivo Sketch_1Light</title>
    <g id="Symbols" stroke="none" stroke-width="1" fill="none" fill-rule="evenodd">
        <g id="1.Light/Documento_Archivo-Sketch_1Light" fill="#5CB615" fill-rule="nonzero">
            <path d="M19.2823529,22.6319328 C19.5310924,22.6319328 19.7630252,22.410084 19.7630252,22.1781513 L19.7630252,7.92268908 L16.7109244,7.92268908 C15.5445378,7.92268908 14.5394958,7.54285714 13.8067227,6.82352941 C13.0672269,6.10084034 12.6739496,5.1092437 12.6739496,3.96302521 L12.6739496,0.994957983 L4.49243697,0.994957983 C4.27394958,0.994957983 4.01176471,1.24033613 4.01176471,1.4487395 L4.01176471,22.1781513 C4.01176471,22.4033613 4.25378151,22.6319328 4.49243697,22.6319328 L19.2823529,22.6319328 L19.2823529,22.6319328 Z M19.507563,6.92773109 L13.6554622,1.21008403 L13.6554622,3.95966387 C13.6554622,4.83361345 13.9445378,5.57647059 14.4890756,6.10756303 C15.0369748,6.64201681 15.8067227,6.92773109 16.7109244,6.92773109 L19.507563,6.92773109 L19.507563,6.92773109 Z M20.707563,6.90756303 C20.7344538,6.96806723 20.7445378,7.03193277 20.7445378,7.10252101 L20.7445378,22.1781513 C20.7445378,22.9613445 20.0756303,23.6235294 19.2789916,23.6235294 L4.48907563,23.6235294 C3.7092437,23.6235294 3.02352941,22.9478992 3.02352941,22.1781513 L3.02352941,1.44537815 C3.02352941,0.68907563 3.72268908,0 4.48907563,0 L13.4907563,0 C13.7058824,0 13.9142857,0.0840336134 14.0655462,0.231932773 L20.4957983,6.51428571 C20.610084,6.62184874 20.6705882,6.75966387 20.707563,6.90756303 Z M15.1882353,12.9848739 L16.5193277,12.9848739 L15.7260504,11.4252101 L15.1882353,12.9848739 Z M14.8453782,13.9798319 L13.4638655,17.9966387 L16.3579832,13.9798319 L14.8453782,13.9798319 L14.8453782,13.9798319 Z M8.97983193,13.9798319 L7.42016807,13.9798319 L10.3781513,18.0470588 L8.97983193,13.9798319 L8.97983193,13.9798319 Z M9.50084034,12.4705882 L10.9260504,10.6655462 L8.8789916,10.6655462 L9.50084034,12.4705882 Z M12.8756303,10.6655462 L14.3210084,12.4773109 L14.9462185,10.6655462 L12.8756303,10.6655462 Z M10.3512605,12.9848739 L13.4638655,12.9848739 L11.897479,11.0252101 L10.3512605,12.9848739 L10.3512605,12.9848739 Z M13.8067227,13.9798319 L10.0184874,13.9798319 L11.9109244,19.4823529 L13.8067227,13.9798319 L13.8067227,13.9798319 Z M8.09243697,11.4084034 L7.26554622,12.9848739 L8.63697479,12.9848739 L8.09243697,11.4084034 Z M17.7630252,13.2672269 C17.7932773,13.3310924 17.8134454,13.4016807 17.8134454,13.4823529 C17.8134454,13.4890756 17.810084,13.4957983 17.810084,13.502521 C17.810084,13.5226891 17.8033613,13.5394958 17.8,13.5563025 C17.789916,13.6235294 17.7663866,13.6840336 17.7327731,13.7378151 C17.7260504,13.7478992 17.7294118,13.7613445 17.7193277,13.7714286 L12.307563,21.2806723 C12.287395,21.3109244 12.2537815,21.3277311 12.2268908,21.3512605 C12.2067227,21.3714286 12.189916,21.3882353 12.1663866,21.405042 C12.0890756,21.4521008 12.005042,21.4890756 11.9109244,21.4890756 C11.8168067,21.4890756 11.7327731,21.4554622 11.6554622,21.405042 C11.6319328,21.3915966 11.6151261,21.3714286 11.594958,21.3546218 C11.5680672,21.3310924 11.5344538,21.3142857 11.5142857,21.2840336 L6.05210084,13.7747899 C6.04537815,13.7647059 6.04537815,13.7512605 6.03865546,13.7411765 C6.00168067,13.6840336 5.98151261,13.6235294 5.97142857,13.5529412 C5.96806723,13.5361345 5.96134454,13.5226891 5.96134454,13.502521 C5.96134454,13.4957983 5.95798319,13.4890756 5.95798319,13.4823529 C5.95798319,13.405042 5.98151261,13.3310924 6.01176471,13.2638655 C6.01512605,13.2571429 6.01176471,13.2537815 6.01512605,13.2504202 L7.75294118,9.93613445 C7.75630252,9.92941176 7.76638655,9.92268908 7.7697479,9.91596639 C7.80336134,9.85882353 7.85042017,9.80840336 7.90756303,9.76806723 C7.92773109,9.75462185 7.94453782,9.74117647 7.96806723,9.73109244 C7.98823529,9.7210084 8.00168067,9.70420168 8.02521008,9.69747899 C8.06554622,9.68403361 8.1092437,9.68403361 8.14957983,9.68067227 C8.16302521,9.68067227 8.17310924,9.67058824 8.18655462,9.67058824 L15.6352941,9.67058824 C15.6487395,9.67058824 15.6588235,9.68067227 15.6722689,9.68067227 C15.712605,9.68403361 15.7563025,9.68403361 15.7966387,9.69747899 C15.8201681,9.70420168 15.8336134,9.7210084 15.8571429,9.73445378 C15.8773109,9.74453782 15.897479,9.75462185 15.9176471,9.77142857 C15.9781513,9.81176471 16.0252101,9.86218487 16.0588235,9.92605042 C16.0621849,9.93277311 16.0689076,9.93613445 16.0722689,9.94285714 L17.7596639,13.2571429 C17.7630252,13.2571429 17.7630252,13.2638655 17.7630252,13.2672269 Z" id="Documento_Archivo-Sketch_1Light"></path>
        </g>
    </g>
</svg>

<svg width="24" height="24" viewBox="0 0 24 24" xmlns="http://www.w3.org/2000/svg"><path d="M19.282 22.632c.25 0 .481-.222.481-.454V7.923h-3.052c-1.166 0-2.172-.38-2.904-1.1-.74-.722-1.133-1.714-1.133-2.86V.995H4.492c-.218 0-.48.245-.48.454v20.73c0 .224.242.453.48.453h14.79zm.226-15.704L13.655 1.21v2.75c0 .874.29 1.616.834 2.148.548.534 1.318.82 2.222.82h2.797zm1.2-.02c.026.06.037.124.037.195v15.075c0 .783-.67 1.446-1.466 1.446H4.489c-.78 0-1.465-.676-1.465-1.446V1.445C3.024.69 3.723 0 4.489 0h9.002c.215 0 .423.084.575.232l6.43 6.282a.78.78 0 01.212.394zm-5.52 6.077h1.331l-.793-1.56-.538 1.56zm-.343.995l-1.381 4.017 2.894-4.017h-1.513zm-5.865 0H7.42l2.958 4.067L8.98 13.98zm.52-1.51l1.426-1.804H8.88l.622 1.805zm3.376-1.804l1.445 1.811.625-1.811h-2.07zm-2.525 2.319h3.113l-1.567-1.96-1.546 1.96zm3.456.995h-3.789l1.893 5.502 1.896-5.502zm-5.715-2.572l-.826 1.577h1.371l-.545-1.577zm9.671 1.86c.03.063.05.134.05.214 0 .007-.003.014-.003.02 0 .02-.007.037-.01.054a.472.472 0 01-.067.182c-.007.01-.004.023-.014.033l-5.411 7.51c-.02.03-.054.047-.081.07a.461.461 0 01-.06.054.492.492 0 01-.256.084.464.464 0 01-.256-.084c-.023-.013-.04-.034-.06-.05-.027-.024-.06-.04-.08-.071l-5.463-7.51c-.007-.01-.007-.023-.013-.033a.452.452 0 01-.068-.188c-.003-.017-.01-.03-.01-.05 0-.007-.003-.014-.003-.02 0-.078.024-.152.054-.22.003-.006 0-.01.003-.013l1.738-3.314c.003-.007.013-.013.017-.02a.48.48 0 01.138-.148c.02-.013.037-.027.06-.037.02-.01.034-.027.057-.034.04-.013.084-.013.125-.016.013 0 .023-.01.037-.01h7.448c.014 0 .024.01.037.01.04.003.084.003.125.016.023.007.037.024.06.037.02.01.04.02.06.037.061.04.108.091.142.155.003.007.01.01.013.017l1.688 3.314c.003 0 .003.007.003.01z" fill="#5CB615" fill-rule="nonzero"/></svg>
